projects/plugins/jetpack/images/stats.svg

<svg height="400" viewBox="0 0 400 400" width="400" xmlns="http://www.w3.org/2000/svg"><g fill="none" fill-rule="evenodd"><circle cx="200.21" cy="200" fill="#d2dce4" r="199.72"/><path d="m77.77 173.77h70.26v152.63h-70.26z" fill="#8facbf"/><path d="m164.31 93.91h70.26v232.49h-70.26z" fill="#8facbf"/><path d="m199.44 93.63h35.13v232.77h-35.13z" fill="#485566" opacity=".08"/><path d="m250.85 133.98h70.26v192.42h-70.26z" fill="#8facbf"/><path d="m113.46 173.77h34.57v152.63h-34.57z" fill="#485566" opacity=".08"/><path d="m286.26 133.7h34.78v192.7h-34.78z" fill="#485566" opacity=".08"/><g fill="#647a88"><path d="m202.09 250.09-19.13 13.63-11.9-10.22c-.56.76-1.11 1.6-1.6 2.43l-5.15-3.27v14.05l2.44 1.6c.97 11.06 10.15 19.69 21.42 19.69 11.9 0 21.57-9.67 21.57-21.57 0-3.54-.84-6.81-2.37-9.73l27.13-41.19v-21.56l-34.36 52.03z" opacity=".4"/><path d="m306.23 208-.84-8c-.97 1.04-1.81 2.09-2.57 3.27l-28.32-21.64c.84-1.25 1.53-2.57 2.16-3.96l-16.49-11.48h-9.39v23.72c1.95.56 3.97.91 6.05.91 2.86 0 5.57-.56 8.07-1.6l34.58 26.43c.55 11.34 9.81 20.38 21.29 20.52v-25.74z" opacity=".4"/><path d="m128.35 221.01-38.96 1.39-2.36-1.25c.62 2.08 1.53 3.96 2.64 5.7l-11.9 11.9v16.76l20.94-20.87c2.72 1.26 5.71 1.95 8.91 1.95 3.13 0 6.12-.69 8.83-1.95l31.52 20.11v-14.05l-22.2-14.13c1.12-1.74 1.95-3.61 2.58-5.56z" opacity=".4"/></g><path d="m320.83 221.01-65.66-49.88-67.97 97.88-84.31-56.35-81.05 77.15c32.91 65.18 100.39 109.91 178.37 109.91 110.33 0 199.72-89.39 199.72-199.72 0-28.66-6.12-55.93-16.97-80.56z" fill="#fff" opacity=".17"/><path d="m378.71 110.4-59.27 95.72-66.99-51.2-66.02 100.04-82.43-52.53-83.97 83.69c1.81 3.76 3.76 7.45 5.78 10.99l79.86-79.58 84.31 53.7 65.39-99.2 67.27 51.41 61.99-100.17c-1.81-4.31-3.76-8.63-5.92-12.87z" fill="#647a88"/><ellipse cx="188.17" cy="262.47" fill="#fff" rx="17.53" ry="17.53"/><ellipse cx="107.62" cy="212.66" fill="#fff" rx="17.53" ry="17.53"/><path d="m107.62 195.2v34.99c9.67 0 17.53-7.86 17.53-17.53s-7.86-17.46-17.53-17.46z" fill="#f0f3f4"/><path d="m188.17 244.94v34.99c9.67 0 17.53-7.86 17.53-17.53 0-9.6-7.86-17.46-17.53-17.46z" fill="#f0f3f4"/><ellipse cx="256.9" cy="167.3" fill="#fff" rx="17.53" ry="17.53"/><path d="m256.9 149.84v34.99c9.67 0 17.53-7.86 17.53-17.53s-7.86-17.46-17.53-17.46z" fill="#f0f3f4"/><ellipse cx="321.04" cy="212.66" fill="#fff" rx="17.53" ry="17.53"/><path d="m320.83 195.2v34.99c9.67 0 17.54-7.86 17.54-17.53s-7.87-17.46-17.54-17.46z" fill="#f0f3f4"/></g></svg>

<svg xmlns="http://www.w3.org/2000/svg" xmlns:xlink="http://www.w3.org/1999/xlink" width="400" height="400" viewBox="0 0 400 400" version="1.1">
  <title>
    Stats
  </title>
  <desc>
    Created with Sketch.
  </desc>
  <g id="Page-1" stroke="none" stroke-width="1" fill="none" fill-rule="evenodd">
    <g id="Stats">
      <circle id="Oval" fill="#D2DCE4" cx="200.21" cy="200" r="199.72"/>
      <rect id="Rectangle-path" fill="#8FACBF" x="77.77" y="173.77" width="70.26" height="152.63"/>
      <rect id="Rectangle-path" fill="#8FACBF" x="164.31" y="93.91" width="70.26" height="232.49"/>
      <rect id="Rectangle-path" fill="#485566" opacity="0.08" x="199.44" y="93.63" width="35.13" height="232.77"/>
      <rect id="Rectangle-path" fill="#8FACBF" x="250.85" y="133.98" width="70.26" height="192.42"/>
      <rect id="Rectangle-path" fill="#485566" opacity="0.08" x="113.46" y="173.77" width="34.57" height="152.63"/>
      <rect id="Rectangle-path" fill="#485566" opacity="0.08" x="286.26" y="133.7" width="34.78" height="192.7"/>
      <path d="M202.09 250.09L182.96 263.72 171.06 253.5C170.5 254.26 169.95 255.1 169.46 255.93L164.31 252.66 164.31 266.71 166.75 268.31C167.72 279.37 176.9 288 188.17 288 200.07 288 209.74 278.33 209.74 266.43 209.74 262.89 208.9 259.62 207.37 256.7L234.5 215.51 234.5 193.95 200.14 245.98 202.09 250.09 202.09 250.09Z" id="Shape" fill="#647A88" opacity="0.4"/>
      <path d="M306.23 208L305.39 200C304.42 201.04 303.58 202.09 302.82 203.27L274.5 181.63C275.34 180.38 276.03 179.06 276.66 177.67L260.17 166.19 250.78 166.19 250.78 189.91C252.73 190.47 254.75 190.82 256.83 190.82 259.69 190.82 262.4 190.26 264.9 189.22L299.48 215.65C300.03 226.99 309.29 236.03 320.77 236.17L320.77 210.43 306.23 208 306.23 208Z" id="Shape" fill="#647A88" opacity="0.4"/>
      <path d="M128.35 221.01L89.39 222.4 87.03 221.15C87.65 223.23 88.56 225.11 89.67 226.85L77.77 238.75 77.77 255.51 98.71 234.64C101.43 235.9 104.42 236.59 107.62 236.59 110.75 236.59 113.74 235.9 116.45 234.64L147.97 254.75 147.97 240.7 125.77 226.57C126.89 224.83 127.72 222.96 128.35 221.01L128.35 221.01Z" id="Shape" fill="#647A88" opacity="0.4"/>
      <path d="M320.83 221.01L255.17 171.13 187.2 269.01 102.89 212.66 21.84 289.81C54.75 354.99 122.23 399.72 200.21 399.72 310.54 399.72 399.93 310.33 399.93 200 399.93 171.34 393.81 144.07 382.96 119.44L320.83 221.01 320.83 221.01Z" id="Shape" fill="#FFFFFF" opacity="0.17"/>
      <path d="M378.71 110.4L319.44 206.12 252.45 154.92 186.43 254.96 104 202.43 20.03 286.12C21.84 289.88 23.79 293.57 25.81 297.11L105.67 217.53 189.98 271.23 255.37 172.03 322.64 223.44 384.63 123.27C382.82 118.96 380.87 114.64 378.71 110.4L378.71 110.4Z" id="Shape" fill="#647A88"/>
      <ellipse id="Oval" fill="#FFFFFF" cx="188.17" cy="262.47" rx="17.53" ry="17.53"/>
      <ellipse id="Oval" fill="#FFFFFF" cx="107.62" cy="212.66" rx="17.53" ry="17.53"/>
      <path d="M107.62 195.2L107.62 230.19C117.29 230.19 125.15 222.33 125.15 212.66 125.15 202.99 117.29 195.2 107.62 195.2L107.62 195.2Z" id="Shape" fill="#F0F3F4"/>
      <path d="M188.17 244.94L188.17 279.93C197.84 279.93 205.7 272.07 205.7 262.4 205.7 252.8 197.84 244.94 188.17 244.94L188.17 244.94Z" id="Shape" fill="#F0F3F4"/>
      <ellipse id="Oval" fill="#FFFFFF" cx="256.9" cy="167.3" rx="17.53" ry="17.53"/>
      <path d="M256.9 149.84L256.9 184.83C266.57 184.83 274.43 176.97 274.43 167.3 274.43 157.63 266.57 149.84 256.9 149.84L256.9 149.84Z" id="Shape" fill="#F0F3F4"/>
      <ellipse id="Oval" fill="#FFFFFF" cx="321.04" cy="212.66" rx="17.53" ry="17.53"/>
      <path d="M320.83 195.2L320.83 230.19C330.5 230.19 338.37 222.33 338.37 212.66 338.37 202.99 330.5 195.2 320.83 195.2L320.83 195.2Z" id="Shape" fill="#F0F3F4"/>
    </g>
  </g>
</svg>
